!!!!SEGMENT: pl-kozmzk--mzk-m-346--037_walczynski-franciszek--cantantibus-organis-maestoso.krn
!!!cenid: 18xx:2832
!!!COM: Walczyński, Franciszek
!!!COM-rismID:
!!!CDT: ~1852-1937
!!!CNT: Polish
!!!GTL: Cantantibus organis op. 10
!!!OTL: 37. Maestoso
!!!PDT: 1898
!!!AGN: Secular
!!!SMS-siglum: PL-KOZmzk
!!!SMS-shelfmark: mzk/m/346
!!!SMS-shelfwork: 037 G
!!!SMS-variant:
!!!SMS-altvar:
!!!NIFC-rismSourceID: 1001109436
!!!NIFC-islandoraID: pl-kozmzk:7453
!!!URL-pdf-islandora: https://repozytorium.nifc.pl/islandora/object/pl-kozmzk%3A7453/datastream/PDF/view
!!!URL-scan: https://polish.musicsources.pl/pl/lokalizacje/galeria/druki-muzyczne/7581 @EN{Scan on Polish Music Herritage in Open Access Website} @PL{Skany w portalu Dziedzictwo Muzyki Polskiej w otwartym dostępie}
!!!ONB-nifc:
!!!OMD: Maestoso.
!!!AIN: 1 empty
!!!key:
**kern	**kern	**dynam
*part1	*part1	*part1
*staff2	*staff1	*
*Iempty	*Iempty	*
*	*I"37.	*
*clefF4	*clefG2	*
*k[b-]	*k[b-]	*
*D:	*D:	*
*M2/2	*M2/2	*
*met(c|)	*met(c|)	*
=1	=1	=1
*^	*^	*
4D/	4D\	4d/	4d\	f
8E/L	8E\L	8e/L	8e\L	<
8F/J	8F\J	8f/J	8f\J	.
4G/	4G\	4g/	4g\	.
4E/	4E\	4e/	4e\	[
=2	=2	=2	=2	=2
2AZ/	2A^\	2a^Z/	2a\	>
!LO:TX:b:i:t=Ped.	!	!	!	!LO:DY:a:rj
(4A/	(2D\	4f/	([2d\	] p
8B-/L	.	8g/L	.	]
8A/J	.	8f/J	.	.
=3	=3	=3	=3	=3
4B-/	4GG\	2e/	4.d\]	.
8A/L	4AA\	.	.	.
8G/J	.	.	8c#X\	.
2F/)	2D\)	2d/	2A\)	.
=4	=4	=4	=4	=4
4D/	4D\	4d/	4d\	ff
8E/L	8E\L	8e/L	8e\L	.
8F/J	8F\J	8f/J	8f\J	<
4G/	4G\	4g/	4g\	.
4E/	4E\	4e/	4e\	[
=5	=5	=5	=5	=5
2B-^Z/	2B-\	2b-^Z/	2b-^\	.
!LO:TX:b:i:t=Ped.	!	!	!	!LO:DY:a:rj
(4g/	(4C#X 4CC#X\	(4ee/	4b-\	p
8f/L	8DL 8DD\	8dd/L	[4a\	.
8e/J	8EJ 8EE\	8cc#X/J	.	.
=6	=6	=6	=6	=6
[2d/	4F 4FF\	4dd/	2a\]	.
.	4F#X 4FF#X\	4ccn/	.	.
2d/])	2G 2GG\)	2b-/	2g\	.
!!LO:LB:g=original
=7	=7	=7	=7	=7
*	*	*	*	*^
!	!	!LO:TX:t=P:problem=brak zakończenia łuku	!	!LO:HP:a	!
4G/	4G\	4g/)	4g\	<	f
8A/L	8A\L	8a/L	8a\L	.	.
8B-/J	8B-\J	8b-/J	8b-\J	.	.
.	.	.	.	[	.
!	!	!	!	!LO:HP:a	!
.	.	.	.	>	.
4cZ/	4c\	4ccZ/	4cc\	.	.
.	.	.	.	]	.
!	!	!	!	!LO:DY:a:rj	!LO:DY:b=2:rj
4A/	4F#X\	4e-X^/	4c\	pp	pp
*	*	*	*	*v	*v
=8	=8	=8	=8	=8
[2G/	(8G\L	[2d/	[2B-\	fp >
.	8D\)	.	.	.
.	8BB-'\	.	.	.
.	8AA'\J	.	.	.
8G/]	8GG;\	8d;/]	8B-\]	]
!	!	!	!	!LO:DY:a
8rAA	8rA	(8e/L	8r	p
4rAA	4rA	8f/	4r	.
.	.	8g/J)	.	.
=9	=9	=9	=9	=9
8rAA	8rA	(4.a/	8rc	.
[4.A/	(8AA\L	.	(8c#X\L	.
.	8BBn\	.	8d\	.
.	8C#X\J	8g/	8e\J	.
4A/]	2D\)	4f/	[2d\)	.
8G/L	.	8e/L	.	.
8F/J	.	8d/J)	.	.
=10	=10	=10	=10	=10
!	!	!	!	!LO:DY:a:rj
!	!	!	!	!LO:HP:a
(2B-/	(2GG\	1e	2.d\]	pp >
4A/	2AA\)	.	.	.
4G/)	.	.	4c#X\	]]
=11	=11	=11	=11	=11
!	!	!	!	!LO:HP:a
!LO:TX:b:i:t=Ped.	!	!	!	!LO:DY:b=2:rj
(4F/	(4DD\	2.d/	2.d\	fp <
8G/L	8EE\L	.	.	.
8A/J	8FF\J	.	.	.
4B-/	4GG\	.	.	.
[4A/)	4AA\)	4e/	4c#X\	[
=12	=12	=12	=12	=12
!	!	!	!	!LO:HP:a
1A]	1DD;	1f#X;	1d	> ]
*v	*v	*	*	*
*	*v	*v	*
==	==	==
*-	*-	*-
!!!system-decoration: {(s1,s2)}
!!!RDF**kern: Z = caesura
!!!ENC: Andrzej Kubiczek
!!!END: 2021-08-09
!!!ENC: Krzysztof Stępień
!!!END: 2021-07-28
